X: 25641
T: Martin O'Connor's
R: polka
M: 2/4
K: Dmajor
|:FE E2|FD D2|FE- EA|dB B/c/B/A/|
FE E/F/E/D/|FD- D>E|FE cd|B2- B2:|
|:Ad dd/e/|fe- ef/e/|d>e d/c/B/A/|dB B>A|
Fd d2|fe e2|de/d/ c/B/A|B2- B2:|

